assets/awsgrouppublicsubnet/original.svg

<svg height="40" viewBox="0 0 40 40" width="40" xmlns="http://www.w3.org/2000/svg"><g fill="none" fill-rule="evenodd"><path d="m0 0h40v40h-40z" fill="#7aa116"/><path d="m19.536 22.049c1.106 0 2.006.899 2.006 2.005s-.9 2.006-2.006 2.006-2.006-.9-2.006-2.006.9-2.005 2.006-2.005m-.524 4.958v3.494h1v-3.489a3 3 0 0 0 2.53-2.958 3.01 3.01 0 0 0 -3.006-3.005 3.01 3.01 0 0 0 -3.006 3.005 3.006 3.006 0 0 0 2.482 2.953m-9.012 6.007h19.012v-15.014h-19.012zm4.046-20.53a5.49 5.49 0 0 1 5.483-5.484 5.49 5.49 0 0 1 5.483 5.484v4.516h-10.966zm15.466 4.516h-3.5v-4.516a6.49 6.49 0 0 0 -6.483-6.484 6.49 6.49 0 0 0 -6.483 6.484v4.516h-3.546a.5.5 0 0 0 -.5.5v16.014a.5.5 0 0 0 .5.5h20.012a.5.5 0 0 0 .5-.5v-16.014a.5.5 0 0 0 -.5-.5" fill="#fff"/></g></svg>

<svg xmlns="http://www.w3.org/2000/svg" width="40" height="40" viewBox="0 0 40 40"><title>Icon-Architecture-Group/32/Public-subnet_32</title><g id="Icon-Architecture-Group/32/Public-subnet_32" fill="none" fill-rule="evenodd" stroke="none" stroke-width="1"><path id="Rectangle" fill="#7aa116" d="M0 0h40v40H0z"/><path id="Fill-1" fill="#fff" d="M19.536 22.049c1.106 0 2.006.899 2.006 2.005s-.9 2.006-2.006 2.006-2.006-.9-2.006-2.006.9-2.005 2.006-2.005m-.524 4.958v3.494h1v-3.489a3 3 0 0 0 2.53-2.958 3.01 3.01 0 0 0-3.006-3.005 3.01 3.01 0 0 0-3.006 3.005 3.006 3.006 0 0 0 2.482 2.953M10 33.014h19.012V18H10zm4.046-20.53A5.49 5.49 0 0 1 19.529 7a5.49 5.49 0 0 1 5.483 5.484V17H14.046zM29.512 17h-3.5v-4.516A6.49 6.49 0 0 0 19.529 6a6.49 6.49 0 0 0-6.483 6.484V17H9.5a.5.5 0 0 0-.5.5v16.014a.5.5 0 0 0 .5.5h20.012a.5.5 0 0 0 .5-.5V17.5a.5.5 0 0 0-.5-.5"/></g></svg>
